X: 1990
T: Yine Bezm-i Îyş-i Vuslat
C: Dede Efendi
O: Turkey
F: http://compmusic.upf.edu/node/140
N: hisarbuselik--yuruksemai--yuruksemai_ii--yine_bezm-i--dede_efendi
N: makam= hisarbuselik
N: form= yuruksemai
N: usul= yuruksemai_ii = 6/8
M: 6/8
L: 1/16
K: C _1/4B   
Q: 1/4=120
%%MIDI tuningsystem comma53
e8 ^d4{f}e4 e8  | e4e8^d4 f2e2{^g}f2e2  | \
w:  Ah  yi *  ne  bezm_  |  i  îyş_ i  vus  | 
e4{f}e2d2 d4d4 d4e4  | c4c8A4 =B4c4  | 
w:  lat   *  *  *  yi ne  bezm_  |  i  îyş_ i  vus  | 
A4=B4 c4^d4 e8  | e4f8e4 {f}^d8  | e8 f4f4 ^g8  | \
w:  lat   *  dil_ i  bî   |  ka râ re  *  düş  |  tü   | 
{=b}a2^g2f2e2 b4a2g2 g2f2{g}f2e2  | 
w:  *  *  *  *  *  a  câ *  nım   | 
e12g12  | g8 g4g2^3/4f2 {a}g8  | g2^3/4f2g8f2g2 a4g2=f2  | \
w:  gel   SAZ  |  Ah  hat tı  *  *  lâ  |  li *  nin  sa *  fâ  | 
e8 f4f4 f8  | e4e8d4 d4{f}e2d2  | 
w:  sı   hat tı  lâ  |  li nin  sa fâ  | 
c8 e2d2c2=B2 c8  | =B4c8B2c2 B2A2^G2A2  | \
w:  sı   gül  *  i *  le   |  ba hâ re  *  düş  | 
=B2c2B2c2 B2c2B2c2 d2e4d2  | 
w:  tü   | 
c2=B2A4 d4c2B2 B2A2A2^G2  | A16-A4z4  | \
w:  *  *  *  a  câ *  nım   |  gel    | 
G8 A4=B4 c8  | c4d4 c4d4 e8  | 
w:  Dir  dir  *  ten   |  te  ne  ni  te  nen   | 
=B2c2e2d2 c4B4 c2B2A2B2  | c6e2 d2c2=B2A2 G8  | \
w:  na  *  *  *  te  ne  dir   |  ney    | 
G8 A4=B4 c8  | 
w:  Dir  dir  *  ten   | 
c4d4 c4d4 e8  | =B2c2e2d2 c4B4 c2B2A2B2  | \
w:  te  ne  ni  te  nen   |  na  *  *  *  te  ne  dir   | 
c12g12  | g8 g4g2^3/4f2 g8  | 
w:  ney   SAZ  |  Ah  sa na  *  hay  | 
g4^3/4f2g2 a4g2^f2 e8  | e4f8f2e2 _1/4e2d2_2/4e2d2  | \
w:  ran  *  *  o la *  yım   |  gel   | 
d2_7/8e2d2e2 d2e2d2e2 e3dc4  | 
w:  gel  *  *  *  *  *  *  *  gel    | 
g8 g4g4 g8  | g4{a}g2^3/4f2 _3/4e2d2c4 g8  | \
w:  Ah  sa na  kur  |  ban  *  *  *  *  *  *  kur  | 
g2^3/4f2g2f2 f2_3/4e2_7/8e2d2 e3dc2d2  | 
w:  ban  *  *  *  o *  la *  yım   | 
=B4c16z4  | d3c=B2c2 B2c2B2c2 B2A2^G2A2  | \
w:  gel   |  gel   | 
=B16-=B4z4  | =B4c8B2c2 A8  | 
w:  gel    |  ah   | 
A4d2c2 c2=B2B2A2 ^G2A2B2A2  | ^G4A16z4  | \
w:  ba hâ *  *  *  re  *  düş  |  tü    | 
e8 ^d4{f}e4 e8  | e4e8^d4 f2e2{^g}f2e2  | 
w:  Ah  yi *  ne  bezm_  |  i  îyş_ i  vus  | 
e4{f}e2d2 d4d4 d4e4  | c4c8A4 =B4c4  | \
w:  lat   *  *  *  yi ne  bezm_  |  i  îyş_ i  vus  | 
A4=B4 c4^d4 e8  | e4f8e4 {f}^d8  | 
w:  lat   *  dil_ i  bî   |  ka râ re  *  düş  | 
e8 f4f4 ^g8  | {=b}a2^g2f2e2 b4a2g2 g2f2{g}f2e2  | \
w:  tü   |  *  *  *  *  *  a  câ *  nım   | 
e12g12  | g8 g4g2^3/4f2 {a}g8  | 
w:  gel   SAZ  |  Ah  hat tı  *  *  lâ  | 
g2^3/4f2g8f2g2 a4g2=f2  | e8 f4f4 f8  | \
w:  li *  nin  sa *  fâ  |  sı   hat tı  lâ  | 
e4e8d4 d4{f}e2d2  | c8 e2d2c2=B2 c8  | 
w:  li nin  sa fâ  |  sı   gül  *  i *  le   | 
=B4c8B2c2 B2A2^G2A2  | =B2c2B2c2 B2c2B2c2 d2e4d2  | \
w:  ba hâ re  *  düş  |  tü   | 
c2=B2A4 d4c2B2 B2A2A2^G2  | 
w:  *  *  *  a  câ *  nım   | 
A16-A4z4  | G8 A4=B4 c8  | c4d4 c4d4 e8  | \
w:  gel    |  Dir  dir  *  ten   |  te  ne  ni  te  nen   | 
=B2c2e2d2 c4B4 c2B2A2B2  | 
w:  na  *  *  *  te  ne  dir   | 
c6e2 d2c2=B2A2 G8  | G8 A4=B4 c8  | c4d4 c4d4 e8  | \
w:  ney    |  Dir  dir  *  ten   |  te  ne  ni  te  nen   | 
=B2c2e2d2 c4B4 c2B2A2B2  | 
w:  na  *  *  *  te  ne  dir   | 
c12g12  | g8 g4g2^3/4f2 g8  | g4^3/4f2g2 a4g2^f2 e8  | \
w:  ney   SAZ  |  Ah  sa na  *  hay  |  ran  *  *  o la *  yım   | 
e4f8f2e2 _1/4e2d2_2/4e2d2  | 
w:  gel   | 
d2_7/8e2d2e2 d2e2d2e2 e3dc4  | g8 g4g4 g8  | \
w:  gel  *  *  *  *  *  *  *  gel    |  Ah  sa na  kur  | 
g4{a}g2^3/4f2 _3/4e2d2c4 g8  | 
w:  ban  *  *  *  *  *  *  kur  | 
g2^3/4f2g2f2 f2_3/4e2_7/8e2d2 e3dc2d2  | \
w:  ban  *  *  *  o *  la *  yım   | 
=B4c16z4  | d3c=B2c2 B2c2B2c2 B2A2^G2A2  | 
w:  gel   |  gel   | 
=B16-=B4z4  | =B4c8B2c2 A8  | A4d2c2 c2=B2B2A2 ^G2A2B2A2  | \
w:  gel    |  ah   |  ba hâ *  *  *  re  *  düş  | 
^G4A16z4  | 
w:  tü    | 
|


